X:1
T:Praise the Lord, O Jerusalem
T:Jeremiah Clarke (c1674-1707)
T:Bible, Psalm 147:12, Isaiah 49:23, Psalm 48:8, Psalm 21:13
T:Praise the Lord, O Jerusalem
T:(sung at the coronation of Queen Anne, 1702)
C:Jeremiah Clarke (c1674-1707)
Z:Bible, Psalm 147:12, Isaiah 49:23,
Z:Psalm 48:8, Psalm 21:13
%%score [ 1 2 3 4 ]
L:1/8
M:3/2
K:G
V:1 treble nm="Treble" snm="S."
V:2 treble nm="Counter Tenor" snm="A."
V:3 treble-8 transpose=-12 nm="Tenor" snm="T."
V:4 bass nm="Bass" snm="B."
V:1
 D8 D4 | E12 | (E4 F4) G4 | F6 E2 D4 | G8 D4 | (E4 F4) G4 | (A4 B4) c4 | B4 G8 ||[M:4/4] z8 | z8 | %10
w: Praise the|Lord,|O _ Je-|ru- sa- lem,|praise thy|God, _ thy|God, _ O|Si- on.|||
 z4 z2 B2 | E2 G2 A2 F2 | G2 G2 d2 d2 | B2 B2 e2 e2 | ^c2 A2 z4 | z8 | z2 A2 B2 B2 | G2 G2 c2 c2 | %18
w: and|queens thy nur- sing|mo- thers, kings shall|be thy nur- sing|fa- thers,||for kings shall|be thy nur- sing|
 A2 F2 z2 d2 | d8- | d6 d2 | edcB AB c2 | B2 G4 d2 | d8- | d6 d2 | edcB AB c2 | B2 G6 || %27
w: fa- thers, and|queens,|_ and|queens _ thy _ nur- * sing|mo- thers, and|queens|_ and|queens _ thy _ nur- * sing|mo- thers.|
[M:3/2] G4 E4 B4 | B12 | E4 F4 G4 | ^D8 F2 F2 | G8 E4 | ^C4 C8 | B,12 | D4 D4 G4 | F12 | A4 A4 d4 | %37
w: As we have|heard,|so have we|seen in the|ci- ty|of our|God,|as we have|heard,|so have we|
 B8 e2 e2 | ^d8 B4 | (A2 G2) F8 | E12 | c8 c4 | (c2 B2) B4 B4 | (B6 c2) A4 | B4 B8 ||[M:4/4] z8 | %46
w: seen in the|ci- ty|of _ our|God,|God up-|hol- * deth the|same _ for|e- ver.||
 z4 z ABc | d3 c B4 | A2 F2 G4 | F8 ||[M:3/2] A4 A4 A4 | B12 | G4 G4 G4 | c12 | A4 A4 A4 | %55
w: Be thou ex-|al- ted, Lord|in thine own|strength.|So will we|sing,|so will we|sing,|so will we|
 d4 d4 d4 | ^c8 B4- | B4 B6 ^A2 | B12 ||[M:2/2] z4 B2 d2 | B2 G2 E2 A2 | F2 D2 G2 A2 | %62
w: sing, will we|sing and|_ praise thy|pow'r.|Hal- le-|lu- jah, Hal- le-|lu- jah, Hal- le-|
 B2 A2 F2 ED | D2 D2 A2 B2 | c2 B2 B2 A2 | B2 B2 B2 F2 | G2 B2 G2 FE | E2 E2 G2 E2 | %68
w: lu- jah, Hal- le- *|lu- jah, Hal- le-|lu- jah, Hal- le-|lu- jah, Hal- le-|lu- jah, Hal- le- *|lu- jah, Hal- le-|
 ^C2 F2 D2 CB, | B,2 B,2 d2 d2 | d2 d2 z4 | z4 d2 d2 | d2 B2 cBAG | G2 G2 d2 d2 | d2 d2 z4 | %75
w: lu- jah, Hal- le- *|lu- jah, Hal- le-|lu- jah,|Hal- le-|lu- jah, Hal- * le- *|lu- jah, Hal- le-|lu- jah,|
 z4 d2 d2 | d2 B2 cBAG | G2 G6 |] %78
w: Hal- le-|lu- jah, Hal- * le- *|lu- jah.|
V:2
 B,8 B,4 | C12 | (C4 D4) D4 | D6 D2 D4 | D8 B,4 | (C4 D4) D4 | E4 D8 | D4 D8 ||[M:4/4] z8 | z8 | %10
w: Praise the|Lord,|O _ Je-|ru- sa- lem,|praise thy|God, _ thy|God, O|Si- on.|||
 z4 z2 B,2 | C2 B,2 A,2 D2 | B,2 G,2 z4 | z8 | z4 z2 F2 | B,2 D2 E2 ^C2 | D2 D2 G2 G2 | %17
w: and|queens thy nur- sing|mo- thers,||and|queens thy nur- sing|mo- thers, kings shall|
 E2 E2 E2 E2 | F2 D2 z4 | z2 B,2 B,4- | B,2 A,2 A,2 B,2 | B,2 G,2 D2 D2 | D2 B,6 | z2 B,2 B,4- | %24
w: be thy nur- sing|fa- thers,|and queens,|_ and queens, and|queens thy nur- sing|mo- thers,|and queens,|
 B,2 A,2 A,2 B,2 | B,2 G,2 D2 D2 | D2 B,6 ||[M:3/2] E4 B,4 G4 | F12 | E4 ^D4 B,4 | B,8 ^D2 D2 | %31
w: _ and queens and|queens thy nur- sing|mo- thers.|As we have|heard,|so have we|seen in the|
 E8 B,4 | B,4 ^A,8 | B,12 | B,4 B,4 D4 | D12 | F4 F4 F4 | G8 G2 G2 | F8 E4 | E4 ^D8 | E12 | G8 G4 | %42
w: ci- ty|of our|God,|as we have|heard,|so have we|seen in the|ci- ty|of our|God,|God up-|
 F4 F4 F4 | E8 E4 | ^D4 D8 ||[M:4/4] z G,B,C D3 C | B,2 B,B, A,4 | G,DDD D3 D | D2 DD (D2 ^C2) | %49
w: hol- deth the|same for|e- ver.|Be thou ex- al- ted,|Lord in thine own|strength, be thou ex- al- ted|Lord in thine own _|
 D8 ||[M:3/2] F4 F4 F4 | G12 | E4 E4 E4 | E12 | F4 F4 F4 | F4 F4 F4 | F8 D4- | D4 F6 F2 | F12 || %59
w: strength.|So will we|sing,|so will we|sing,|so will we|sing, will we|sing and|_ praise thy|pow'r.|
[M:2/2] z4 D2 D2 | D2 D2 C2 E2 | D2 D2 D2 F2 | G2 D2 D2 ^C2 | D2 D2 D2 D2 | E2 D2 E2 E2 | %65
w: Hal- le-|lu- jah, Hal- le-|lu- jah, Hal- le-|lu- jah, Hal- le-|lu- jah, Hal- le-|lu- jah, Hal- le-|
 ^D2 D2 D2 D2 | E2 E2 E2 ^D2 | E2 E2 B,2 B,2 | ^A,2 B,2 B,2 A,2 | B,2 B,2 G2 G2 | G2 G2 D2 D2 | %71
w: lu- jah, Hal- le-|lu- jah, Hal- le-|lu- jah, Hal- le-|lu- jah, Hal- le-|lu- jah, Hal- le-|lu- jah, Hal- le-|
 D2 D2 G2 G2 | G2 D2 D2 D2 | D2 D2 G2 G2 | G2 G2 D2 D2 | D2 D2 G2 G2 | G2 D2 D2 D2 | D2 D6 |] %78
w: lu- jah, Hal- le-|lu- jah, Hal- le-|lu- jah, Hal- le-|lu- jah, Hal- le-|lu- jah, Hal- le-|lu- jah, Hal- le-|lu- jah.|
V:3
 G8 G4 | G12 | (G4 A4) B4 | A6 A2 A4 | G8 G4 | (G4 A4) G4 | G8 F4 | G4 G8 ||[M:4/4] z2 D2 G2 G2 | %9
w: Praise the|Lord,|O _ Je-|ru- sa- lem,|praise thy|God, _ thy|God, O|Si- on.|For kings shall|
 E2 E2 A2 A2 | F2 D2 z4 | z8 | z8 | z8 | z4 z2 F2 | G2 F2 E2 A2 | F2 D2 z2 D2 | E2 E2 C2 C2 | %18
w: be thy nur- sing|fa- thers,||||and|queens thy nur- sing|mo- thers, for|kings shall be thy|
 D2 D2 D2 D2 | z4 z2 G2 | G2 F2 F2 G2 | G2 G2 G2 F2 | G2 G6 | z4 z2 G2 | G2 F2 F2 G2 | %25
w: nur- sing fa- thers,|and|queens, and queens, and|queens thy nur- sing|mo- thers,|and|queens and queens and|
 G2 G2 G2 F2 | G2 G6 ||[M:3/2] B4 G4 E4 | ^D12 | G4 B4 G4 | F8 B2 B2 | B8 G4 | G4 F8 | F12 | %34
w: queens thy nur- sing|mo- thers.|As we have|heard,|so have we|seen in the|ci- ty|of our|God,|
 G4 G4 B4 | A12 | d4 d4 d4 | d8 G3 A | B8 B4 | (c4 F4) B4 | B12 | E8 E4 | F4 F4 F4 | G8 E4 | %44
w: as we have|heard,|so have we|seen in the|ci- ty|of _ our|God,|God up-|hol- deth the|same for|
 F4 F8 ||[M:4/4] z4 z DEF | G3 G F4 | z FGA B3 G | d2 AA (B2 G2) | A8 ||[M:3/2] d4 d4 d4 | d12 | %52
w: e- ver.|Be thou ex-|al- ted, Lord|be thou ex- al- ted|Lord in thine own _|strength.|So will we|sing,|
 c4 G4 E4 | A12 | A4 A4 F4 | B4 B4 B4 | ^A8 B4- | B4 ^c6 c2 | B12 ||[M:2/2] z4 B2 A2 | %60
w: so will we|sing,|so will we|sing, will we|sing and|_ praise thy|pow'r.|Hal- le-|
 G2 G2 G2 c2 | A2 A2 B2 c2 | d2 d2 A2 A2 | F2 F2 F2 G2 | EF G2 G2 E2 | F2 F2 F2 B2 | B2 B2 B2 B2 | %67
w: lu- jah, Hal- le-|lu- jah, Hal- le-|lu- jah, Hal- le-|lu- jah, Hal- le-|lu- * jah, Hal- le-|lu- jah, Hal- le-|lu- jah, Hal- le-|
 B2 B2 B2 G2 | F2 F2 F2 F2 | F2 F2 B2 B2 | B2 B2 B2 B2 | B2 B2 B2 B2 | B2 G2 G2 F2 | G2 G2 B2 B2 | %74
w: lu- jah, Hal- le-|lu- jah, Hal- le-|lu- jah, Hal- le-|lu- jah, Hal- le-|lu- jah, Hal- le-|lu- jah, Hal- le-|lu- jah, Hal- le-|
 B2 B2 B2 B2 | B2 B2 B2 B2 | B2 G2 G2 F2 | G2 G6 |] %78
w: lu- jah, Hal- le-|lu- jah, Hal- le-|lu- jah, Hal- le-|lu- jah.|
V:4
 G,,8 G,,4 | C,12 | C,8 B,,4 | D,6 D,2 D,4 | B,,8 G,,4 | C,8 B,,4 | C,4 D,8 | G,,4 G,,8 || %8
w: Praise the|Lord,|O Je-|ru- sa- lem,|praise thy|God, thy|God, O|Si- on.|
[M:4/4] z4 z2 G,,2 | C,2 C,2 A,,2 A,,2 | D,2 D,2 B,,2 G,,2 | z8 | z4 z2 D,2 | G,2 G,2 E,2 E,2 | %14
w: For|kings shall be thy|nur- sing fa- thers,||for|kings shall be thy|
 A,2 A,2 F,2 D,2 | z8 | z4 z2 B,,2 | C,2 C,2 A,,2 A,,2 | D,2 D,2 B,,2 G,,2 | z8 | z2 D,2 D,2 B,,2 | %21
w: nur- sing fa- thers,||for|kings shall be thy|nur- sing fa- thers,||and queens and|
 C,2 C,2 D,2 D,2 | G,,2 G,,6 | z8 | z2 D,2 D,2 B,,2 | C,2 C,2 D,2 D,2 | G,,2 G,,6 || %27
w: queens thy nur- sing|mo- thers,||and queens and|queens thy nur- sing|mo- thers.|
[M:3/2] E,4 E,4 E,4 | B,,12 | C,4 B,,4 E,4 | B,,8 B,,2 B,,2 | E,8 E,4 | E,4 F,8 | B,,12 | %34
w: As we have|heard,|so have we|seen in the|ci- ty|of our|God,|
 G,,4 G,,4 G,,4 | D,12 | D,4 D,4 D,4 | G,8 E,2 E,2 | B,,8 G,,4 | A,,4 B,,8 | E,12 | E,8 E,4 | %42
w: as we have|heard,|so have we|seen in the|ci- ty|of our|God,|God up-|
 ^D,4 D,4 =D,4 | ^C,8 =C,4 | B,,4 B,,8 ||[M:4/4] z8 | z G,,B,,C, D,3 C, | B,,D,E,F, G,3 G, | %48
w: hol- deth the|same for|e- ver.||Be thou ex- al- ted,|Lord be thou ex- al- ted|
 F,2 F,F, E,4 | D,8 ||[M:3/2] z12 | G,,4 G,,4 G,,4 | C,12 | A,,4 A,,4 A,,4 | D,12 | %55
w: Lord in thine own|strength.||So will we|sing,|so will we|sing,|
 B,,4 B,,4 B,,4 | F,8 G,4- | G,4 F,6 F,2 | B,,12 ||[M:2/2] z4 G,2 F,2 | G,2 B,,2 C,2 A,,2 | %61
w: so will we|sing and|_ praise thy|pow'r|Hal- le-|lu- jah, Hal- le-|
 D,2 D,2 B,2 A,2 | G,2 F,2 A,2 A,,2 | D,2 D,2 D,2 C,B,, | A,,2 B,,2 C,2 C,2 | B,,2 B,,2 B,,2 B,,2 | %66
w: lu- jah, Hal- le-|lu- jah, Hal- le-|lu- jah, Hal- le- *|lu- jah, Hal- le-|lu- jah, Hal- le-|
 E,2 G,,2 B,,2 B,,2 | E,2 E,2 E,2 E,2 | F,2 D,2 F,2 F,,2 | B,,2 B,,2 G,2 G,2 | G,2 G,2 G,2 G,2 | %71
w: lu- jah, Hal- le-|lu- jah, Hal- le-|lu- jah, Hal- le-|lu- jah, Hal- le-|lu- jah, Hal- le-|
 G,2 G,2 G,2 G,2 | G,2 B,,2 D,2 D,2 | G,,2 G,,2 G,2 G,2 | G,2 G,2 G,2 G,2 | G,2 G,2 G,2 G,2 | %76
w: lu- jah, Hal- le-|lu- jah, Hal- le-|lu- jah, Hal- le-|lu- jah, Hal- le-|lu- jah, Hal- le-|
 G,2 B,,2 D,2 D,2 | G,,2 G,,6 |] %78
w: lu- jah, Hal- le-|lu- jah.|

